!!!OTL: NUN IST DIE ZEIT UND STUNDE
!!!ARE: Europa, Mitteleuropa, Deutschland, Hessen, Oberhessen; Wetterau
!!!SCT: E0795
!!!YEM: Copyright 1995, estate of Helmut Schaffrath.
**kern
*ICvox
*Ivox
*M4/4
*k[]
*C:
{4G
=1
4.c
8G
8E
8C
8.G
16F
=2
2G
4r}
{8B
8c
=3
4.d
8c
8B
8A
8G
8e
=4
2c
8r}
{8G
8A
8B
=5
4c
4e
4d
4g
=6
2e
8r}
{8d
8c
8B
=7
4A
8f
8d
4e
4d
=8
2c
8r}
{8G
8A
8B
=9
4c
4e
4d
4g
=10
[2e
8e]}
{8d
8c
8B
=11
4A
8f
8d
4e
4d
=12
2c
4r}
==
!!!AGN: Abschieds - Lied, Auswanderung
!!!ONB: ESAC (Essen Associative Code) Database: ERK2
!!!AMT: simple quadruple
!!!AIN: vox
!!!EED: Helmut Schaffrath
!!!EEV: 1.0
*-
